X:237
T:The Poker Run Reel
R:reel
C:Bruce Osborne  --  Feb. 1998
Z:abc by Bruce Osborne - bosborne@kos.net
M:2/4
L:1/8
K:Bb
D/E/|F/E/F/G/ F/D/B,/C/|D/E/F/G/ FA/B/|c/B/c/d/ c/A/F/A/|B/A/B/c/ dD/E/|\
F/E/F/G/ F/D/B,/C/|D/E/F/G/ FA/B/|c/B/c/d/ c/A/F/A/|B/A/B/c/ B:|
|:D/E/|F/E/F/G/ F/D/B,/D/|F/E/F/G/ FA/B/|c/A/F/A/ c/e/d/c/|B/A/B/c/ dD/E/|\
F/E/F/G/ F/D/B,/D/|F/E/F/G/ FA/B/|c/A/F/A/ c/e/d/c/|B/A/B/c/ B:|
